www/assets/icons/filter_9.svg

<svg xmlns="http://www.w3.org/2000/svg" width="24" height="24" viewBox="0 0 24 24" fill='currentColor'><path d="M3 5H1v16c0 1.1.9 2 2 2h16v-2H3zm18-4H7c-1.1 0-2 .9-2 2v14c0 1.1.9 2 2 2h14c1.1 0 2-.9 2-2V3c0-1.1-.9-2-2-2m0 16H7V3h14zM15 5h-2a2 2 0 0 0-2 2v2a2 2 0 0 0 2 2h2v2h-4v2h4a2 2 0 0 0 2-2V7a2 2 0 0 0-2-2m0 4h-2V7h2z"/></svg>

<svg width="24" height="24" viewBox="0 0 24 24" xmlns="http://www.w3.org/2000/svg" fill='currentColor'><path d="M3 5H1V21C1 22.1 1.9 23 3 23H19V21H3V5ZM21 1H7C5.9 1 5 1.9 5 3V17C5 18.1 5.9 19 7 19H21C22.1 19 23 18.1 23 17V3C23 1.9 22.1 1 21 1ZM21 17H7V3H21V17ZM15 5H13C11.9 5 11 5.89 11 7V9C11 10.11 11.9 11 13 11H15V13H11V15H15C16.1 15 17 14.11 17 13V7C17 5.89 16.1 5 15 5ZM15 9H13V7H15V9Z"/></svg>
